svg/fridge_variant_off.svg

<svg xmlns="http://www.w3.org/2000/svg" viewBox="0 0 24 24"><path d="M2.39 1.73 1.11 3 5 6.89V19a2 2 0 0 0 2 2v1h2v-1h2.5v-7.61l1 1V21H15v1h2v-1c.58 0 1.1-.25 1.46-.65l2.38 2.38 1.27-1.27zM10 14H7v-4h1.11L10 11.89zm9 1.8-6.5-6.5V2H17a2 2 0 0 1 2 2zm-7.5-7.5L5.7 2.5c.35-.31.8-.5 1.3-.5h4.5z"/></svg>

<?xml version="1.0" encoding="UTF-8"?><!DOCTYPE svg PUBLIC "-//W3C//DTD SVG 1.1//EN" "http://www.w3.org/Graphics/SVG/1.1/DTD/svg11.dtd"><svg xmlns="http://www.w3.org/2000/svg" xmlns:xlink="http://www.w3.org/1999/xlink" version="1.1" id="mdi-fridge-variant-off" width="24" height="24" viewBox="0 0 24 24"><path d="M2.39 1.73L1.11 3L5 6.89V19C5 20.11 5.9 21 7 21V22H9V21H11.5V13.39L12.5 14.39V21H15V22H17V21C17.58 21 18.1 20.75 18.46 20.35L20.84 22.73L22.11 21.46L2.39 1.73M10 14H7V10H8.11L10 11.89V14M19 15.8L12.5 9.3V2H17C18.11 2 19 2.9 19 4V15.8M11.5 8.3L5.7 2.5C6.05 2.19 6.5 2 7 2H11.5V8.3Z" /></svg>
